assets/calendar.svg

<?xml version="1.0" encoding="utf-8"?>
<!-- Generator: Adobe Illustrator 21.1.0, SVG Export Plug-In . SVG Version: 6.00 Build 0)  -->
<svg version="1.1" id="Layer_1" xmlns="http://www.w3.org/2000/svg" xmlns:xlink="http://www.w3.org/1999/xlink" x="0px" y="0px"
	 viewBox="0 0 18 20" style="enable-background:new 0 0 18 20;" xml:space="preserve">
<style type="text/css">
	.st0{fill:#001833;}
</style>
<path id="path-1_1_" class="st0" d="M6,9H4v2h2V9z M10,9H8v2h2V9z M14,9h-2v2h2V9z M16,2h-1V0h-2v2H5V0H3v2H2C0.9,2,0,2.9,0,4l0,14
	c0,1.1,0.9,2,2,2h14c1.1,0,2-0.9,2-2V4C18,2.9,17.1,2,16,2z M16,18H2V7h14V18z"/>
</svg>

<?xml version="1.0" encoding="UTF-8"?>
<svg width="18px" height="20px" viewBox="0 0 18 20" version="1.1" xmlns="http://www.w3.org/2000/svg" xmlns:xlink="http://www.w3.org/1999/xlink">
    <!-- Generator: Sketch 47.1 (45422) - http://www.bohemiancoding.com/sketch -->
    <title>Mask</title>
    <desc>Created with Sketch.</desc>
    <defs>
        <path d="M6,9 L4,9 L4,11 L6,11 L6,9 Z M10,9 L8,9 L8,11 L10,11 L10,9 Z M14,9 L12,9 L12,11 L14,11 L14,9 Z M16,2 L15,2 L15,0 L13,0 L13,2 L5,2 L5,0 L3,0 L3,2 L2,2 C0.89,2 0.01,2.9 0.01,4 L0,18 C0,19.1 0.89,20 2,20 L16,20 C17.1,20 18,19.1 18,18 L18,4 C18,2.9 17.1,2 16,2 Z M16,18 L2,18 L2,7 L16,7 L16,18 Z" id="path-1"></path>
    </defs>
    <g id="Icons" stroke="none" stroke-width="1" fill="none" fill-rule="evenodd">
        <g id="search-/-calendar" transform="translate(-3.000000, -2.000000)">
            <g id="calendar">
                <g id="Icon-🎨" transform="translate(3.000000, 2.000000)">
                    <mask id="mask-2" fill="white">
                        <use xlink:href="#path-1"></use>
                    </mask>
                    <use id="Mask" fill="#001833" fill-rule="nonzero" xlink:href="#path-1"></use>
                </g>
            </g>
        </g>
    </g>
</svg>
